X:32
T:De la baguette. [FJ32]
S:Festin joyeux.  Music page 16.
Z:transcribed by Eric Conrad, 2021.
N:NB The meter is given simply as "2"
N:NB In the MS, the G is the bottom line of the staff
N:NB Repeat marks were added at beginning and end.
N:NB The MS repeat mark is 4 vertical dots enclosed by bars on both sides.
N:NB The plus signs seem to indicate some kind of roll or trill.
N:NB1 MS key D dorian (no accidentals in sig), here assuming D harmonic minor (one flat).
N:NB1 -- One B-flat (first measure - NB2) and one B-natural (measure 5 - NB3)
N:NB2 Marked as B-flat in MS.
N:NB3 Unmarked B in MS with empty key signature, so B-natural.
N:NB4 MS has "|f2::", here "|f4::".
N:NB5 MS has "|d2||", here "|d4:|]".
M:2/2
L:1/4
% K:Dmin clef=treble1 % staff GBdfa
K:Dmin % no accidentals in sig and end D (D Dorian), but B-flat in first measure (suggests D harmonic minor)
|: "_NB1"d2 c>"_NB2-B\u266d"B | A2 zd | ^cd ef | "^+"e2 "^+"e2 | d2 ^c"_NB3-B\u266e"=B |
"^+"^c2 zd | ef gf/e/ | "_NB4"f4 :: a2 gf | "^+"e3f |
gf ed | ^c2 A2 | A2 gf | e3f | ed e^c | "NB5"d4 :|


